assets/misc-grey/MiscGrey9.svg

<svg width="38" height="32" viewBox="0 0 38 32" fill="none" xmlns="http://www.w3.org/2000/svg">
<path fill-rule="evenodd" clip-rule="evenodd" d="M35.552 0.820986C34.723 0.820986 34.052 1.49299 34.052 2.32099V30.3C34.052 31.128 34.723 31.8 35.552 31.8C36.38 31.8 37.052 31.128 37.052 30.3V2.32099C37.052 1.49299 36.38 0.820986 35.552 0.820986ZM25.646 26.608C25.646 27.635 25.336 28.401 24.796 28.71C24.607 28.817 24.385 28.872 24.137 28.872C23.709 28.872 23.204 28.712 22.664 28.395L4.60499 18.431C3.83399 18.044 3.36999 17.461 3.33399 16.833C3.29799 16.216 3.67699 15.599 4.31199 15.18L23.125 4.10699C23.867 3.72199 24.524 3.64199 24.929 3.88999C25.377 4.16199 25.646 4.89799 25.646 5.85799V26.608ZM26.487 1.32599C25.854 0.940986 25.146 0.747986 24.387 0.747986C23.535 0.747986 22.618 0.990986 21.674 1.48199L2.72699 12.633C1.13299 13.681 0.23999 15.316 0.33899 17.008C0.43799 18.71 1.52899 20.244 3.20799 21.085L21.18 31.001C22.951 32.043 24.813 32.157 26.286 31.313C27.785 30.456 28.646 28.741 28.646 26.608V5.85799C28.646 3.78099 27.879 2.17199 26.487 1.32599Z" fill="#1A1919"/>
</svg>

<svg xmlns="http://www.w3.org/2000/svg" viewBox="0 0 38 32"><path fill-rule="evenodd" d="M35.552.821a1.5 1.5 0 00-1.5 1.5V30.3a1.5 1.5 0 103 0V2.321a1.5 1.5 0 00-1.5-1.5zm-9.906 25.787c0 1.027-.31 1.793-.85 2.102a1.322 1.322 0 01-.659.162c-.428 0-.933-.16-1.473-.477L4.605 18.431c-.771-.387-1.235-.97-1.271-1.598-.036-.617.343-1.234.978-1.653L23.125 4.107c.742-.385 1.399-.465 1.804-.217.448.272.717 1.008.717 1.968v20.75zm.841-25.282a3.984 3.984 0 00-2.1-.578c-.852 0-1.769.243-2.713.734L2.727 12.633C1.133 13.681.24 15.316.339 17.008c.099 1.702 1.19 3.236 2.869 4.077l17.972 9.916c1.771 1.042 3.633 1.156 5.106.312 1.499-.857 2.36-2.572 2.36-4.705V5.858c0-2.077-.767-3.686-2.159-4.532z" clip-rule="evenodd"/></svg>
